assets/images/simple-illustrations/simple-illustration__wallet-alt.svg

<svg xmlns="http://www.w3.org/2000/svg" width="270" height="280" fill="none" viewBox="0 0 30 44"><path fill="#D18000" d="M26.7969 22.8477H2.94542C1.80808 22.8477 0.886078 23.7697 0.886078 24.907V40.482C0.886078 41.6193 1.80808 42.5413 2.94542 42.5413H26.7969C27.9342 42.5413 28.8562 41.6193 28.8562 40.482V24.907C28.8562 23.7697 27.9342 22.8477 26.7969 22.8477Z"/><path fill="#780505" d="M5.4714 26.359V22.7461H2.63247C2.63247 22.7461 0.886078 23.3832 0.886078 24.5959V26.4373L5.4686 26.359H5.4714Z"/><path fill="#780505" d="M24.5616 22.5848V26.5135H28.725V24.5911C28.725 24.5911 28.3255 22.8447 27.11 22.8447C25.8945 22.8447 24.5616 22.582 24.5616 22.582V22.5848Z"/><path fill="#00B268" d="M24.7183 0.824219H5.15598V26.5143H24.7183V0.824219Z"/><path fill="#FCDCFF" d="M26.0845 32.7557V29.8078C26.0845 29.8078 26.1684 28.4609 24.9473 28.4609H6.79042C6.79042 28.4609 5.65317 28.4609 5.65317 29.5563V32.6746L26.0845 32.7585V32.7557Z"/><path fill="#FBCCFF" d="M6.15912 28.6251H4.39038C4.39038 28.6251 3.67506 28.4155 3.63314 29.7623L3.54932 32.4588L5.65616 32.6683V29.55L6.16191 28.6223L6.15912 28.6251Z"/><path fill="#F9B5FE" d="M12.0715 30.1836H8.30768V32.5419H12.0715V30.1836Z"/><path stroke="#002140" stroke-linecap="round" stroke-linejoin="round" stroke-width="1" d="M5.49982 32.4874V29.6932C5.49982 29.003 6.05866 28.4414 6.75163 28.4414H24.861C25.5512 28.4414 26.1128 29.0003 26.1128 29.6932V32.6551"/><path stroke="#002140" stroke-linecap="round" stroke-linejoin="round" stroke-width="1" d="M8.13742 32.429V30.2383H12.013V32.4848"/><path stroke="#002140" stroke-linecap="round" stroke-linejoin="round" stroke-width="1" d="M14.0359 30.4609H17.9114"/><path stroke="#002140" stroke-linecap="round" stroke-linejoin="round" stroke-width="1" d="M20.1024 30.4609H23.9779"/><path stroke="#002140" stroke-linecap="round" stroke-linejoin="round" stroke-width="1" d="M14.0359 31.5898H17.9114"/><path stroke="#002140" stroke-linecap="round" stroke-linejoin="round" stroke-width="1" d="M3.58807 32.4874V29.6932C3.58807 29.003 4.14692 28.4414 4.83989 28.4414H8.92504"/><path fill="#5BE3AA" d="M14.8744 23.4105C17.2988 23.4105 19.2641 20.4181 19.2641 16.7267C19.2641 13.0354 17.2988 10.043 14.8744 10.043C12.45 10.043 10.4847 13.0354 10.4847 16.7267C10.4847 20.4181 12.45 23.4105 14.8744 23.4105Z"/><path fill="#5BE3AA" d="M8.40536 5.57031C9.15073 5.57031 9.75497 4.96607 9.75497 4.2207C9.75497 3.47533 9.15073 2.87109 8.40536 2.87109C7.66 2.87109 7.05576 3.47533 7.05576 4.2207C7.05576 4.96607 7.66 5.57031 8.40536 5.57031Z"/><path fill="#5BE3AA" d="M21.5131 5.58984C22.2585 5.58984 22.8627 4.9856 22.8627 4.24023C22.8627 3.49487 22.2585 2.89062 21.5131 2.89062C20.7677 2.89062 20.1635 3.49487 20.1635 4.24023C20.1635 4.9856 20.7677 5.58984 21.5131 5.58984Z"/><path stroke="#002140" stroke-linecap="round" stroke-linejoin="round" stroke-width="1" d="M5.21713 26.3569V1.10547H24.5727V26.2255"/><path stroke="#002140" stroke-linecap="round" stroke-linejoin="round" stroke-width="1" d="M14.8966 23.6281C17.3425 23.6281 19.3254 20.5581 19.3254 16.7711C19.3254 12.9841 17.3425 9.91406 14.8966 9.91406C12.4506 9.91406 10.4677 12.9841 10.4677 16.7711C10.4677 20.5581 12.4506 23.6281 14.8966 23.6281Z"/><path stroke="#002140" stroke-linecap="round" stroke-linejoin="round" stroke-width="1" d="M21.5134 5.79131C22.3683 5.79131 23.0614 5.09825 23.0614 4.24331C23.0614 3.38838 22.3683 2.69531 21.5134 2.69531C20.6585 2.69531 19.9654 3.38838 19.9654 4.24331C19.9654 5.09825 20.6585 5.79131 21.5134 5.79131Z"/><path stroke="#002140" stroke-linecap="round" stroke-linejoin="round" stroke-width="1" d="M8.41381 5.79131C9.26875 5.79131 9.96181 5.09825 9.96181 4.24331C9.96181 3.38838 9.26875 2.69531 8.41381 2.69531C7.55888 2.69531 6.86581 3.38838 6.86581 4.24331C6.86581 5.09825 7.55888 5.79131 8.41381 5.79131Z"/><path stroke="#002140" stroke-linecap="round" stroke-linejoin="round" stroke-width="1" d="M8.23514 26.3568V7.32812"/><path stroke="#002140" stroke-linecap="round" stroke-linejoin="round" stroke-width="1" d="M21.6474 7.32812V26.4155"/><path stroke="#002140" stroke-linecap="round" stroke-linejoin="round" stroke-width="1" d="M11.6552 3.98828H18.2496"/><path stroke="#002140" stroke-linecap="round" stroke-linejoin="round" stroke-width="1" d="M18.2468 4.21875C18.2468 5.93999 19.6439 7.3371 21.3652 7.3371C21.4294 7.3371 21.4965 7.3371 21.5608 7.33151"/><path stroke="#002140" stroke-linecap="round" stroke-linejoin="round" stroke-width="1" d="M11.6582 4.21875C11.6582 5.93999 10.2611 7.3371 8.53983 7.3371C8.47557 7.3371 8.40851 7.3371 8.34424 7.33151"/><path stroke="#002140" stroke-linecap="round" stroke-linejoin="round" stroke-width="1" d="M24.7713 22.6406H26.5988C27.845 22.6406 28.8565 23.6521 28.8565 24.8984V40.4957C28.8565 41.7419 27.845 42.7534 26.5988 42.7534H3.04066C1.79444 42.7534 0.782928 41.7419 0.782928 40.4957V24.8984C0.782928 23.6521 1.79444 22.6406 3.04066 22.6406H5.02456"/><path stroke="#002140" stroke-linecap="round" stroke-linejoin="round" stroke-width="1" d="M0.782928 26.4102H28.7531"/><path stroke="#002140" stroke-linecap="round" stroke-linejoin="round" stroke-width="1" d="M0.782928 33.0078H28.7531"/></svg>

<svg xmlns="http://www.w3.org/2000/svg" width="270" height="280" fill="none" viewBox="0 0 30 44"><path fill="#d18000" d="M26.797 22.848H2.945a2.06 2.06 0 0 0-2.059 2.059v15.575a2.06 2.06 0 0 0 2.06 2.06h23.85a2.06 2.06 0 0 0 2.06-2.06V24.907a2.06 2.06 0 0 0-2.06-2.06"/><path fill="#780505" d="M5.471 26.359v-3.613H2.632s-1.746.637-1.746 1.85v1.841l4.583-.078zm19.091-3.774v3.928h4.163v-1.922s-.4-1.746-1.615-1.746-2.548-.263-2.548-.263z"/><path fill="#00b268" d="M24.718.824H5.156v25.69h19.562z"/><path fill="#fcdcff" d="M26.085 32.756v-2.948s.083-1.347-1.138-1.347H6.79s-1.137 0-1.137 1.095v3.119l20.432.084z"/><path fill="#fbccff" d="M6.16 28.625H4.39s-.715-.21-.757 1.137L3.55 32.46l2.107.21v-3.12l.506-.928z"/><path fill="#f9b5fe" d="M12.072 30.184H8.308v2.358h3.764z"/><path stroke="#002140" stroke-linecap="round" stroke-linejoin="round" d="M5.5 32.487v-2.794c0-.69.559-1.252 1.252-1.252H24.86c.69 0 1.252.56 1.252 1.252v2.962"/><path stroke="#002140" stroke-linecap="round" stroke-linejoin="round" d="M8.137 32.429v-2.19h3.876v2.246m2.023-2.025h3.875m2.191 0h3.876m-9.942 1.13h3.875m-14.323.897v-2.794c0-.69.559-1.252 1.252-1.252h4.085"/><path fill="#5be3aa" d="M14.874 23.41c2.425 0 4.39-2.992 4.39-6.683 0-3.692-1.965-6.684-4.39-6.684s-4.39 2.992-4.39 6.684c0 3.691 1.966 6.683 4.39 6.683M8.405 5.57a1.35 1.35 0 1 0 0-2.699 1.35 1.35 0 0 0 0 2.7m13.108.019a1.35 1.35 0 1 0 0-2.7 1.35 1.35 0 0 0 0 2.7"/><path stroke="#002140" stroke-linecap="round" stroke-linejoin="round" d="M5.217 26.357V1.105h19.356v25.12"/><path stroke="#002140" stroke-linecap="round" stroke-linejoin="round" d="M14.897 23.628c2.446 0 4.428-3.07 4.428-6.857s-1.982-6.857-4.428-6.857-4.43 3.07-4.43 6.857 1.984 6.857 4.43 6.857m6.616-17.837a1.548 1.548 0 1 0 0-3.096 1.548 1.548 0 0 0 0 3.096m-13.099 0a1.548 1.548 0 1 0 0-3.096 1.548 1.548 0 0 0 0 3.096m-.179 20.566V7.328m13.412 0v19.088M11.655 3.988h6.595m-.003.231a3.12 3.12 0 0 0 3.118 3.118c.064 0 .132 0 .196-.005m-9.903-3.113A3.12 3.12 0 0 1 8.54 7.337q-.097.001-.196-.005"/><path stroke="#002140" stroke-linecap="round" stroke-linejoin="round" d="M24.771 22.64H26.6a2.26 2.26 0 0 1 2.258 2.258v15.598a2.26 2.26 0 0 1-2.258 2.257H3.04a2.26 2.26 0 0 1-2.258-2.257V24.898a2.26 2.26 0 0 1 2.258-2.257h1.984M.783 26.41h27.97M.783 33.008h27.97"/></svg>
